public/svgs/solid/list-tree.svg

<svg xmlns="http://www.w3.org/2000/svg" viewBox="0 0 512 512"><!-- Font Awesome Pro 6.0.0-alpha2 by @fontawesome - https://fontawesome.com License - https://fontawesome.com/license (Commercial License) --><path d="M208 208H144C135.156 208 128 215.156 128 224V232H72V144H80C88.844 144 96 136.844 96 128V64C96 55.156 88.844 48 80 48H16C7.156 48 0 55.156 0 64V128C0 136.844 7.156 144 16 144H24V384C24 414.875 49.125 440 80 440H128V448C128 456.844 135.156 464 144 464H208C216.844 464 224 456.844 224 448V384C224 375.156 216.844 368 208 368H144C135.156 368 128 375.156 128 384V392H80C75.594 392 72 388.406 72 384V280H128V288C128 296.844 135.156 304 144 304H208C216.844 304 224 296.844 224 288V224C224 215.156 216.844 208 208 208ZM192 128H480C497.674 128 512 113.674 512 96S497.674 64 480 64H192C174.326 64 160 78.326 160 96S174.326 128 192 128ZM480 224H320C302.326 224 288 238.326 288 256S302.326 288 320 288H480C497.674 288 512 273.674 512 256S497.674 224 480 224ZM480 384H320C302.326 384 288 398.326 288 416S302.326 448 320 448H480C497.674 448 512 433.674 512 416S497.674 384 480 384Z"/></svg>

<svg xmlns="http://www.w3.org/2000/svg" viewBox="0 0 512 512"><!--! Font Awesome Pro 6.5.1 by @fontawesome - https://fontawesome.com License - https://fontawesome.com/license (Commercial License) Copyright 2023 Fonticons, Inc. --><path d="M24 48C10.7 48 0 58.7 0 72v48c0 13.3 10.7 24 24 24V256 384c0 30.9 25.1 56 56 56h48c0 13.3 10.7 24 24 24h48c13.3 0 24-10.7 24-24V392c0-13.3-10.7-24-24-24H152c-13.3 0-24 10.7-24 24H80c-4.4 0-8-3.6-8-8V280h56c0 13.3 10.7 24 24 24h48c13.3 0 24-10.7 24-24V232c0-13.3-10.7-24-24-24H152c-13.3 0-24 10.7-24 24H72V144c13.3 0 24-10.7 24-24V72c0-13.3-10.7-24-24-24H24zM160 96c0 17.7 14.3 32 32 32H480c17.7 0 32-14.3 32-32s-14.3-32-32-32H192c-17.7 0-32 14.3-32 32zM288 256c0 17.7 14.3 32 32 32H480c17.7 0 32-14.3 32-32s-14.3-32-32-32H320c-17.7 0-32 14.3-32 32zm0 160c0 17.7 14.3 32 32 32H480c17.7 0 32-14.3 32-32s-14.3-32-32-32H320c-17.7 0-32 14.3-32 32z"/></svg>
